vendor/shopware/storefront/Resources/app/storefront/dist/assets/icon/default/sliders.svg

<svg xmlns="http://www.w3.org/2000/svg" width="24" height="24" viewBox="0 0 24 24">
  <path fill="#758CA3" fill-rule="evenodd" d="M21,10.8292943 L21,23 C21,23.5522847 20.5522847,24 20,24 C19.4477153,24 19,23.5522847 19,23 L19,10.8292943 C17.8348076,10.4174579 17,9.30621883 17,8 C17,6.68866807 17.841356,5.57384536 19.0136984,5.16590157 C19.0046887,5.11194132 19,5.05651821 19,5 L19,1 C19,0.44771525 19.4477153,0 20,0 C20.5522847,0 21,0.44771525 21,1 L21,5 C21,5.05651821 20.9953113,5.11194132 20.9863016,5.16590157 C22.158644,5.57384536 23,6.68866807 23,8 C23,9.30621883 22.1651924,10.4174579 21,10.8292943 Z M13,14.1707057 C14.1651924,14.5825421 15,15.6937812 15,17 C15,18.3062188 14.1651924,19.4174579 13,19.8292943 L13,23 C13,23.5522847 12.5522847,24 12,24 C11.4477153,24 11,23.5522847 11,23 L11,19.8292943 C9.83480763,19.4174579 9,18.3062188 9,17 C9,15.6937812 9.83480763,14.5825421 11,14.1707057 L11,1 C11,0.44771525 11.4477153,0 12,0 C12.5522847,0 13,0.44771525 13,1 L13,14.1707057 Z M5,10.8292943 L5,23 C5,23.5522847 4.55228475,24 4,24 C3.44771525,24 3,23.5522847 3,23 L3,10.8292943 C1.83480763,10.4174579 1,9.30621883 1,8 C1,6.69378117 1.83480763,5.58254212 3,5.17070571 L3,1 C3,0.44771525 3.44771525,0 4,0 C4.55228475,0 5,0.44771525 5,1 L5,5.17070571 C6.16519237,5.58254212 7,6.69378117 7,8 C7,9.30621883 6.16519237,10.4174579 5,10.8292943 Z M3,8 C3,8.55228475 3.44771525,9 4,9 C4.55228475,9 5,8.55228475 5,8 C5,7.44771525 4.55228475,7 4,7 C3.44771525,7 3,7.44771525 3,8 Z M20,7 C19.4477153,7 19,7.44771525 19,8 C19,8.55228475 19.4477153,9 20,9 C20.5522847,9 21,8.55228475 21,8 C21,7.44771525 20.5522847,7 20,7 Z M12,16 C11.4477153,16 11,16.4477153 11,17 C11,17.5522847 11.4477153,18 12,18 C12.5522847,18 13,17.5522847 13,17 C13,16.4477153 12.5522847,16 12,16 Z"/>
</svg>

<svg xmlns="http://www.w3.org/2000/svg" width="24" height="24" viewBox="0 0 24 24"><path fill="#758CA3" fill-rule="evenodd" d="M21 10.8293V23c0 .5523-.4477 1-1 1s-1-.4477-1-1V10.8293c-1.1652-.4118-2-1.523-2-2.8293 0-1.3113.8414-2.4262 2.0137-2.8341A1.0068 1.0068 0 0 1 19 5V1c0-.5523.4477-1 1-1s1 .4477 1 1v4c0 .0565-.0047.112-.0137.1659C22.1586 5.5739 23 6.6887 23 8c0 1.3062-.8348 2.4175-2 2.8293zm-8 3.3414c1.1652.4118 2 1.523 2 2.8293 0 1.3062-.8348 2.4175-2 2.8293V23c0 .5523-.4477 1-1 1s-1-.4477-1-1v-3.1707C9.8348 19.4175 9 18.3063 9 17c0-1.3062.8348-2.4175 2-2.8293V1c0-.5523.4477-1 1-1s1 .4477 1 1v13.1707zm-8-3.3414V23c0 .5523-.4477 1-1 1s-1-.4477-1-1V10.8293C1.8348 10.4175 1 9.3063 1 8c0-1.3062.8348-2.4175 2-2.8293V1c0-.5523.4477-1 1-1s1 .4477 1 1v4.1707C6.1652 5.5825 7 6.6937 7 8c0 1.3062-.8348 2.4175-2 2.8293zM3 8c0 .5523.4477 1 1 1s1-.4477 1-1-.4477-1-1-1-1 .4477-1 1zm17-1c-.5523 0-1 .4477-1 1s.4477 1 1 1 1-.4477 1-1-.4477-1-1-1zm-8 9c-.5523 0-1 .4477-1 1s.4477 1 1 1 1-.4477 1-1-.4477-1-1-1z"/></svg>
